!!!OTL: WER SICH DES MAIEN FREUET
!!!ARE: Europa, Mitteleuropa, Deutschland, Wuerttemberg
!!!SCT: E2026
!!!YEM: Copyright 1995, estate of Helmut Schaffrath.
**kern
*ICvox
*Ivox
*M4/4
*k[f#]
*G:
{4d
=1
4g
4d
4b
4a
=2
8b
8cc
4b
4a}
{8g
8b
=3
8a
8g
4f#
8g
8f#
4f#
=4
2d
4r}
{4d
=5
4g
4d
4b
4a
=6
8b
8cc
4b
4a}
{8g
8b
=7
8a
8g
4f#
8g
8f#
4f#
=8
2d
4r}
{4b
=9
2dd
8g
8a
8b
8dd
=10
2.cc}
{8a
8cc
=11
8b
8a
8g
8f#
4b
4a
=12
2.g}
==
!!!AGN: geistlich, Wallfahrts - Lied
!!!ONB: ESAC (Essen Associative Code) Database: ERK3
!!!AMT: simple quadruple
!!!AIN: vox
!!!EED: Helmut Schaffrath
!!!EEV: 1.0
*-
